X:1219
T:Joe Bane's Fling
O:ireland
R:fling
D:Martin Hayes
Z:id:hn-hf-17
M:C|
K:G
B2~B2 BAGA|BABc dedc|B2~B2 BAGB|1 d2cA AGGA:|2 d2cA AGG2||
e2a2 g3e|d2Bc d2d2|e2a2 g3e|d2cA AGG2|
e2a2 g2e2|d2e2 f2g2|abaf g2ge|d2cA AGGA||
This file contains 100 hornpipes (#1 - #100).
You can find more abc tune files at http://home1.swipnet.se/~w-11382/abc.htm
I've transcribed them as I have learnt them, which does not necessarily mean
that I play them that way nowadays. Many of the tunes include variations and
different versions. If there is a source (S:) or discography (D:) included the
version transcribed might still not be exactly as that source played the tune,
since I might have changed the tune around a bit when I learnt it.
The tunes were learnt from sessions, from friends or from recordings.
When I've included discography, it's often just a reference to what recordings
the tune appears on.
Last updated 10 June 2001.
(c) Copyright 1996-2001 Henrik Norbeck. This file:
- May be distributed freely (with restrictions below).
- May not be used for commercial purposes (such as printing a tune book to sell).
- This file (or parts of it) may not be made available on a web page for
download without permission from me.
- This copyright notice must be kept, except when e-mailing individual tunes.
- May be printed on paper for personal use.
- Questions? E-mail: henrik.norbeck@mailbox.swipnet.se
R:hornpipe
M:C|
Z:id:hn-hornpipe-%X






